src/assets/filled/BluetoothCircle.svg

<?xml version="1.0" encoding="UTF-8"?>
<svg width="24" height="24" viewBox="0 0 24 24" xmlns="http://www.w3.org/2000/svg">
 <path d="m12.9 10.59 1.67-1.53-1.67-1.39v2.92z"/>
 <path d="m12.9 16.33 1.67-1.39-1.67-1.53v2.92z"/>
 <path d="m12 2c-5.52 0-10 4.48-10 10s4.48 10 10 10 10-4.48 10-10-4.48-10-10-10zm3.72 11.95c0.29 0.27 0.45 0.64 0.44 1.02s-0.19 0.75-0.49 1l-2.07 1.73c-0.38 0.32-0.73 0.41-1 0.41-0.22 0-0.39-0.06-0.49-0.1-0.22-0.1-0.72-0.43-0.72-1.34v-2.67l-2.3 2.11c-0.3 0.28-0.78 0.26-1.06-0.05s-0.26-0.78 0.05-1.06l3.28-3-3.28-3.01c-0.3-0.28-0.32-0.75-0.04-1.06 0.28-0.3 0.76-0.33 1.06-0.05l2.3 2.12v-2.67c0-0.9 0.5-1.23 0.72-1.34 0.21-0.1 0.79-0.27 1.49 0.3l2.06 1.72c0.3 0.25 0.48 0.62 0.49 1s-0.15 0.76-0.44 1.02l-2.14 1.97 2.14 1.95z"/>
</svg>

<svg width="24" height="24" viewBox="0 0 24 24"  xmlns="http://www.w3.org/2000/svg">
<path d="M12.8999 10.5899L14.5699 9.05992L12.8999 7.66992V10.5899Z" />
<path d="M12.8999 16.3302L14.5699 14.9402L12.8999 13.4102V16.3302Z" />
<path d="M12 2C6.48 2 2 6.48 2 12C2 17.52 6.48 22 12 22C17.52 22 22 17.52 22 12C22 6.48 17.52 2 12 2ZM15.72 13.95C16.01 14.22 16.17 14.59 16.16 14.97C16.15 15.35 15.97 15.72 15.67 15.97L13.6 17.7C13.22 18.02 12.87 18.11 12.6 18.11C12.38 18.11 12.21 18.05 12.11 18.01C11.89 17.91 11.39 17.58 11.39 16.67V14L9.09 16.11C8.79 16.39 8.31 16.37 8.03 16.06C7.75 15.75 7.77 15.28 8.08 15L11.36 12L8.08 8.99C7.78 8.71 7.76 8.24 8.04 7.93C8.32 7.63 8.8 7.6 9.1 7.88L11.4 10V7.33C11.4 6.43 11.9 6.1 12.12 5.99C12.33 5.89 12.91 5.72 13.61 6.29L15.67 8.01C15.97 8.26 16.15 8.63 16.16 9.01C16.17 9.39 16.01 9.77 15.72 10.03L13.58 12L15.72 13.95Z" />
</svg>
